X: 9
T: Last Night's Fun
Z: Jeremy
S: https://thesession.org/tunes/63#setting51162
R: reel
M: 4/4
L: 1/8
K: Dmaj
|:ADFD A3B|ADFD EFGB|ADFD A2Bd|edfe dBB2:|
df (3fff af (3fff|defd edBA|df (3fff af (3fff|e2fe dBB2|
df (3fff af (3fff|defd e3f|afbf afef|efed B2dB||

%-------------------- TUNE SEPARATOR --------------------%

